svgs/regular/table.svg

<svg xmlns="http://www.w3.org/2000/svg" viewBox="0 0 512 512"><!--! Font Awesome Pro 6.6.0 by @fontawesome - https://fontawesome.com License - https://fontawesome.com/license (Commercial License) Copyright 2024 Fonticons, Inc. --><path d="M48 264l0-104 184 0 0 104L48 264zm0 48l184 0 0 120L64 432c-8.8 0-16-7.2-16-16l0-104zM280 432l0-120 184 0 0 104c0 8.8-7.2 16-16 16l-168 0zM464 264l-184 0 0-104 184 0 0 104zM64 32C28.7 32 0 60.7 0 96L0 416c0 35.3 28.7 64 64 64l384 0c35.3 0 64-28.7 64-64l0-320c0-35.3-28.7-64-64-64L64 32z"/></svg>

<svg xmlns="http://www.w3.org/2000/svg" viewBox="0 0 512 512"><!--! Font Awesome Pro 6.4.2 by @fontawesome - https://fontawesome.com License - https://fontawesome.com/license (Commercial License) Copyright 2023 Fonticons, Inc. --><path d="M48 264V160H232V264H48zm0 48H232V432H64c-8.8 0-16-7.2-16-16V312zM280 432V312H464V416c0 8.8-7.2 16-16 16H280zM464 264H280V160H464V264zM64 32C28.7 32 0 60.7 0 96V416c0 35.3 28.7 64 64 64H448c35.3 0 64-28.7 64-64V96c0-35.3-28.7-64-64-64H64z"/></svg>
